X:484
T: De klenge Mnnchen (192b), S. 420
N: T0372
O: Luxemburg
S: Singendes Volk, Esch-Alzette, 1937 posth.]
N: Junglinster, fff Mutter und hhh Vater des Verfassers, um 1890
R: Hochzeits-, Ehestandslied]
M: 3/8
L: 1/16
K: D
A2 | AAAAAA | B2A2z2
A4B2 | A4
d2 | d2dddd | d2F2
F2 | B2B2BB | A2G2F2 | G2F2E2 | D4

